X:1
T:Menuett
T:Bach
L:1/8
M:3/4
K:G
V:1 treble nm="Violin" snm="Vln."
V:1
 d2 d2 d2 | d2 gf g2 | B2 AB/c/ BA | B2 AB G2 | e2 e2 e2 | e2 dc BA | d2 cB AB | G6 :: a2 a2 a2 | %9
 a2 d^c d2 | A2 B2 c2 | B2 AB G2 | g2 g2 g2 | gf ed ^cB | A2 d2 ^c2 | d6 | g2 c2 c2 | c2 ed c2 | %18
 a2 c2 c2 | Bd cB A2 | d2 d2 d2 | d2 ef g2 | Bc/d/ cB AB | G6 :| %24

